X: 1
T:Rabbits in Australia
M:6/8
C:
S:Berkeley Morris (1988 May 1)
N:
A:Bucknell
O:English
R:Reel
%P:A/2.(AB)$^3$.A
P:A.(AB)3.A
L:1/8
K:G
I:speed 450
P:A
|:D|G2   G    D2 D|E>Ae       d>BG|G2   G    D2 D|E2 A      G2:|\
%|:E>Ae      d>BG|E2 A       G2 D|E>Ae      d>BG|E2 A      G2:|
P:B
A|B2   G    B2 G|B2-B       A2 A|B2   G    E2 E|AGF       G2
